X:1
T:Humors of Swanlinbar
Z:robin.beech@mcgill.ca
S:Christina Smith, Victoria Bar, Glasgow
R:reel
M:4/4
L:1/8
K:Am
GFDF GFDF | GFDF AFDF | GFDF GFDF | DECE GFDF |
GFDF GFDC | A,_B,_B,C DFG/F/F | GFDF GFDF | DECE AFDF |:
BdAd BdAG | FDGG AFGD | B3B cBAG | GFDF AFDF ::
f3f fede | fedf afde | f3f fedf | eccd efge ::
fdec dcAG | FDEG AFDA | B3B cBAG | GECE GECE :|
